X: 379
T:Soup of Good Drink (#146), The
M:6/8
L:1/8
S:O'Farrell's Pocket Companion 1804-10
Z:bil
K:D
A|DED F2 G|A2 d cAF|G2 A B2 G|GBG AFD|
DED F2 G|A2 d cAF|G2 A B2 G|AFD D3:|
|:d2 e f2 d|faf gec|d2 e f2 d|cBA d2 A|
d2 e f2 d|faf gec|d2 A B2 G|AFD D3:||

